X: 127201
P: Same figure.
M: 6/8
L: 1/8
K: D
|: uA |\
vf2ve ud2uc | d2B A2F | GFG EFG | F2G A2A |\
vf2vf uf2ue | f2f f3 | f2f g2f | e2e e3 |
d2d d2c | d2d d3 | d2B e2d | c2B ABc |\
d2d cBA | B2c d2A | ded cBA | B2c d3 |\
e2e e2e | e2e efg | a2a ABc | d3 d2 |]


